public/assets/images/kojo.svg

<svg xmlns="http://www.w3.org/2000/svg" width="96" height="112" viewBox="0 0 96 112"><path d="M48 112C21.49 112 0 86.928 0 56S21.49 0 48 0s48 25.072 48 56-21.49 56-48 56z" fill="#E0E0E0"/><path d="M48 104.757c-23.738 0-42.98-21.572-42.98-48.182C5.02 29.965 24.26 8.392 48 8.392c23.738 0 42.98 21.572 42.98 48.183 0 26.61-19.242 48.182-42.98 48.182z" fill="#62370C"/><path d="M27.037 60.448c-1.07 0-1.937-.867-1.937-1.937 0-1.066.867-1.933 1.937-1.933s1.936.867 1.936 1.936c0 1.07-.867 1.938-1.936 1.938zm28.288-1.018c-1.07 0-1.937-.867-1.937-1.937s.867-1.937 1.937-1.937 1.937.867 1.937 1.937-.867 1.937-1.937 1.937zm-8.203 58.34v.338-.337zm-28.446-97.1s28.446 5.23 51.666 0c3.69-.83 11.73 26.75 11.73 26.75s4.215-3.577 7.287 5.134c2.52 7.146 7.956-38.512-37.496-43.87C30.66 6.18 18.674 20.67 18.674 20.67z"/><path d="M37.74 55.34l6.21-.29m-30.66-.814s9.395-4.528 23.872-1.953c0 0 2.31 13.405-2.31 13.937-4.62.53-12.586 1.745-17.285.59-4.698-1.154-4.278-12.574-4.278-12.574zm54.716-2.51s-9.776-3.637-23.952.268c0 0-1.06 13.56 3.59 13.662 4.65.1 12.695.572 17.266-1.012 4.572-1.585 3.096-12.917 3.096-12.917zM34.503 86.5s4.656 6.828 11.138.16" stroke="#000" stroke-width="2" fill="none"/><path d="M41.812 65.062c.287 2.82 6.396 6.224 6.396 7.787 0 1.56-4.14 1.18-6.463 1.14-2.323-.045-8.11.2-8.11-1.887s7.924-9.535 8.177-7.043z" fill="#412508"/></svg>

<?xml version="1.0" encoding="UTF-8"?>
<!DOCTYPE svg PUBLIC "-//W3C//DTD SVG 1.1//EN" "http://www.w3.org/Graphics/SVG/1.1/DTD/svg11.dtd">
<svg version="1.1" xmlns="http://www.w3.org/2000/svg" xmlns:xlink="http://www.w3.org/1999/xlink" x="0" y="0" width="96" height="112" viewBox="0, 0, 96, 112">
  <g id="kojo" transform="translate(0, 0)">
    <path d="M48,104.757 C24.262,104.757 5.019,83.185 5.019,56.575 C5.019,29.964 24.262,8.392 48,8.392 C71.738,8.392 90.981,29.964 90.981,56.575 C90.981,83.185 71.738,104.757 48,104.757 z" fill="#7B450F"/>
    <path d="M27.037,60.448 C25.967,60.448 25.1,59.581 25.1,58.511 C25.1,57.442 25.967,56.575 27.037,56.575 C28.106,56.575 28.973,57.442 28.973,58.511 C28.973,59.581 28.106,60.448 27.037,60.448 z" fill="#000000"/>
    <path d="M55.325,59.43 C54.255,59.43 53.388,58.563 53.388,57.493 C53.388,56.423 54.255,55.556 55.325,55.556 C56.395,55.556 57.262,56.423 57.262,57.493 C57.262,58.563 56.395,59.43 55.325,59.43 z" fill="#000000"/>
    <path d="M47.122,117.771 L47.122,117.771 L47.122,118.108 L47.122,118.108 L47.122,117.771 z" fill="#000000"/>
    <path d="M18.676,20.671 C18.676,20.671 47.122,25.9 70.342,20.671 C74.031,19.84 82.071,47.421 82.071,47.421 C82.071,47.421 86.287,43.843 89.359,52.554 C91.879,59.7 97.318,14.042 51.866,8.683 C30.659,6.182 18.676,20.671 18.676,20.671 z" fill="#000000"/>
    <g>
      <path d="M37.74,55.34 L43.951,55.051" fill-opacity="0" stroke="#000000" stroke-width="2"/>
      <path d="M13.289,54.236 C13.289,54.236 22.685,49.708 37.162,52.283 C37.162,52.283 39.473,65.688 34.853,66.22 C30.232,66.751 22.266,67.965 17.567,66.811 C12.869,65.656 13.289,54.236 13.289,54.236 z" fill-opacity="0" stroke="#000000" stroke-width="2"/>
      <path d="M68.006,51.727 C68.006,51.727 58.23,48.089 44.054,51.994 C44.054,51.994 42.995,65.555 47.644,65.656 C52.294,65.757 60.339,66.228 64.91,64.644 C69.482,63.059 68.006,51.727 68.006,51.727 z" fill-opacity="0" stroke="#000000" stroke-width="2"/>
    </g>
    <path d="M30.473,86.5 C30.473,86.5 38.863,91.113 50.545,86.607" fill-opacity="0" stroke="#000000" stroke-width="2"/>
    <path d="M41.812,65.062 C42.099,67.883 48.208,71.286 48.208,72.849 C48.208,74.411 44.068,74.031 41.745,73.989 C39.422,73.947 33.635,74.192 33.635,72.105 C33.635,70.018 41.559,62.57 41.812,65.062 z" fill="#61370C"/>
    <path d="M27.037,62.412 C24.882,62.412 23.136,60.666 23.136,58.511 C23.136,56.357 24.882,54.611 27.037,54.611 C29.191,54.611 30.937,56.357 30.937,58.511 C30.937,60.666 29.191,62.412 27.037,62.412 z" fill="#000000"/>
    <path d="M55.325,61.393 C53.171,61.393 51.424,59.647 51.424,57.493 C51.424,55.339 53.171,53.592 55.325,53.592 C57.479,53.592 59.225,55.339 59.225,57.493 C59.225,59.647 57.479,61.393 55.325,61.393 z" fill="#000000"/>
  </g>
</svg>
